X:1
T: Hollybank Hornpipe
C:C Sherrit
R:Reel
Q: 232
K:G
M:4/4
L:1/8
ed|:B^A Bd cD FA|((3GFG) Bd gd Bd|eG ce dG Bd|((3cdc) ((3BcB) A2 dc|
B^A Bd cD FA|((3GFG) Bd gd Bd|eG ce dg fe|1((3ded) ((3cBA) G2 dc:|2((3ded) ((3cBA) G2 d2|
|:g2 fg dG Bd|((3efe) ^de gG ce|d2 ^cd gG Bd|((3cdc) ((3BcB) A2 ((3def)|
g2 fg dG Bd|((3efe) ^de gG ce|dg dB cg fe|1((3ded) ((3cBA) G2 d2:|2((3ded) ((3cBA) G2||
